X: 3302
T: Stuttgart Strathspey
P: Mr Michie's
C:J. Scott Skinner
R:Strathspey (8x32)
B:RSCDS 33-2
Z:Anselm Lingnau <anselm@strathspey.org>
M:C
L:1/8
K:G
D|"G"G>A B<d "Am"c<A E>G|"D7"F>G A<e "G"d<B B<g|\
  "G"G>A B<d "Am"c<A E>G|"D7"F<A d>B "G"G2 Gd|
  "G"G>A B<d "Am"c<A "A7"E>G|"D7"F>G A<e "G"d<B B<g|\
  "Em"G>A B<d "Am"c<A E>G|"D7"F<A d>B "G"G2 G||
d|"G"g>d "C"e<g "G"d<B B>G|"Am"c>d e/d/c/B/ "D7"A<a a>f|\
  "G"g>d "C"e<g "G"d<B B>G|"D7"(3FDF (3Adc "G"B>G G>d|
  "G"g>d "C"e<g "G"d<B B>G|"Am"c>d e/d/c/B/ "D7"A<a a>f|\
  "Em"(3gbg "G"(3dgd (3BdB "Em"(3GBG|"D7"(3FDF (3Adc "G"B>G G|]
%%center Book33/3302-Stuttgart_Strathspey-AL.abc

%%sep 2 1 500
%%sep 1 1 500

